X:1
T:Constant Johnny.
F:http://www.folkinfo.org/songs
B:Songs of the West by S. Baring- Gould.
S:Roger Luxton.
M:4/4
L:1/4
K:A
A E (A1/2c1/2) (e1/2c1/2)|(d1/2c1/2) (B1/2A1/2) f e)| 
w:Charm-ing Mol-*ly, *I *do *love thee, 
A E (A1/2c1/2) (e1/2c1/2)| (d1/2c1/2) (B1/2A1/2) B2|
w:There's none o-*ther *I *a-*dore;
(c1/2d1/2) e1/2 B1/2 e1/2 c1/2 A|(A1/2G1/2) F1/2 G1/2 A1/2 B1/2 B|
w:Pierced *by your beauteous eyes, *My *heart trans-fi-xed lies,
(A1/2e1/2) d1/2 c1/2 d1/2 e1/2 f1/2 d1/2|c1/2 A1/2 B1/2 G1/2 A2||
w:Say, *dear-est Mol-ly, you'll be mine for e-ver-more.